X:1
T:Annika's Arrival
R:Air
C:Anselm Lingnau
G:SSL 8
S:7 March 1994
H:Written for Ruth Spiesberger, Andreas J\"obges, and their baby,
on the day the good news reached Frankfurt.
K:D
M:6/8
E:9
ag|"D"f2 e d2 c|"F#m"A3 "D"D3|"G"G2 F G B2|"A"A3-A AG|\
"D"F D2 F2 G|"A"A3 d2 e|"D"f3-f2 a|"A"e3-e ag|
"D"f2 e d2 c|"F#m"A3 "D"D3|"G"G2 F G B2|"A"A3-A AG|\
"D"F2 A d2 F|"Em"E G2 B2 d|"A"e6|"D"d3-d||ag|
"D"f2 g a3|"F#m"a6|"Bm"d2 e f3|"A"c6|\
"G"B2 c d3|"D"A3 d2 e|f3-f2 a|"A"e3-e ag|
"D"f2 g a3|"A"a3 d'2 c'|"G"b2 a g3|"D"f3 d2 c|\
"G"B2 A "D"d F2|"Em"D G2 B2 d|"A"e6|"D"d3-d||AG|
"D"F2 G A3|"F#m"A3 d2 c|"G"B2 c d3|"D"A6|\
"Em"G2 A B2 G|"D"F A2 d2 e|f3-f2 a|"A"e3-e AG|
"D"F2 A d3|"F#"f3-f2 e|"Em7"e3 d2 B|"D"A3-A2 G|\
F2 A d2 F|"Em"E G2 B2 d|"A"e6|"D"d3-d|]
